public/build/img/skill-libraries.svg

<svg width="31" height="30" viewBox="0 0 31 30" fill="none" xmlns="http://www.w3.org/2000/svg">
<g clip-path="url(#clip0)">
<path d="M29.5241 19.6875H27.6553V15C27.6553 14.4825 27.2367 14.0625 26.7209 14.0625H16.4427V10.3125H18.3114C18.8272 10.3125 19.2458 9.8925 19.2458 9.375V3.75C19.2458 3.2325 18.8272 2.8125 18.3114 2.8125H12.7051C12.1893 2.8125 11.7707 3.2325 11.7707 3.75V9.375C11.7707 9.8925 12.1893 10.3125 12.7051 10.3125H14.5739V14.0625H4.29565C3.77987 14.0625 3.36126 14.4825 3.36126 15V19.6875H1.49249C0.97671 19.6875 0.558105 20.1075 0.558105 20.625V26.25C0.558105 26.7675 0.97671 27.1875 1.49249 27.1875H7.0988C7.61458 27.1875 8.03319 26.7675 8.03319 26.25V20.625C8.03319 20.1075 7.61458 19.6875 7.0988 19.6875H5.23003V15.9375H14.5739V19.6875H12.7051C12.1893 19.6875 11.7707 20.1075 11.7707 20.625V26.25C11.7707 26.7675 12.1893 27.1875 12.7051 27.1875H18.3114C18.8272 27.1875 19.2458 26.7675 19.2458 26.25V20.625C19.2458 20.1075 18.8272 19.6875 18.3114 19.6875H16.4427V15.9375H25.7865V19.6875H23.9177C23.402 19.6875 22.9834 20.1075 22.9834 20.625V26.25C22.9834 26.7675 23.402 27.1875 23.9177 27.1875H29.5241C30.0398 27.1875 30.4584 26.7675 30.4584 26.25V20.625C30.4584 20.1075 30.0398 19.6875 29.5241 19.6875Z" fill="#1d4ed8"/>
</g>
<defs>
<clipPath id="clip0">
<rect width="29.9003" height="30" fill="white" transform="translate(0.558105)"/>
</clipPath>
</defs>
</svg>

<svg width="31" height="30" fill="none" xmlns="http://www.w3.org/2000/svg"><g clip-path="url(#clip0)"><path d="M29.524 19.688h-1.869V15a.936.936 0 00-.934-.938H16.443v-3.75h1.868c.516 0 .935-.42.935-.937V3.75a.936.936 0 00-.935-.938h-5.606a.936.936 0 00-.934.938v5.625c0 .518.418.938.934.938h1.869v3.75H4.296A.936.936 0 003.36 15v4.688H1.492a.936.936 0 00-.934.937v5.625c0 .517.419.938.934.938H7.1c.516 0 .934-.42.934-.938v-5.625a.936.936 0 00-.934-.938H5.23v-3.75h9.344v3.75h-1.869a.936.936 0 00-.934.938v5.625c0 .517.418.938.934.938h5.606c.516 0 .935-.42.935-.938v-5.625a.936.936 0 00-.935-.938h-1.868v-3.75h9.343v3.75h-1.868a.936.936 0 00-.935.938v5.625c0 .517.419.938.935.938h5.606c.516 0 .934-.42.934-.938v-5.625a.936.936 0 00-.934-.938z" fill="#1d4ed8"/></g><defs><clipPath id="clip0"><path fill="#fff" transform="translate(.558)" d="M0 0h29.9v30H0z"/></clipPath></defs></svg>
